lib/flags/s/052.svg

<svg xmlns="http://www.w3.org/2000/svg" fill="none" viewBox="0 0 16 12"><mask id="052_svg__a" width="16" height="12" x="0" y="0" mask-type="alpha" maskUnits="userSpaceOnUse"><path fill="#fff" d="M0 0H16V12H0z"/></mask><g fill-rule="evenodd" clip-rule="evenodd" mask="url(#052_svg__a)"><path fill="#2E42A5" d="M11 0H16V12H11V0Z"/><path fill="#FECA00" d="M5 0H11V12H5V0Z"/><path fill="#2E42A5" d="M0 0H5V12H0V0Z"/><path fill="#000" d="M9.21711 7.63651C9.53351 6.982 9.8985 5.78766 9.8985 5.78766L10.1754 4.96535L9.07787 5.36279L9.33761 5.51364C9.33761 5.51364 8.88493 6.41853 8.65694 6.86058C8.42894 7.30263 8.40637 7.01059 8.40637 7.01059L8.44538 3.92623L8.69729 3.85793L8.06948 2.65198L7.26852 3.87465L7.62145 3.88416C7.62145 3.88416 7.59211 7.13847 7.54306 7.01059C7.51568 6.93795 7.44284 7.16245 7.40734 7.07549C7.18483 6.53039 6.88051 5.47392 6.88051 5.47392L7.05858 5.30733L5.86444 5.06165L6.22095 5.79578C6.22095 5.79578 6.53533 7.10397 6.88051 7.74287C6.95824 7.945 7.33381 8.03123 7.33381 8.03123C7.33381 8.03123 7.51719 7.84509 7.56262 8.03123C7.60804 8.21737 7.56262 8.96872 7.56262 8.96872H8.40637C8.40637 8.96872 8.34696 8.25991 8.40637 8.03123C8.46578 7.80255 8.64992 8.03123 8.64992 8.03123C8.64992 8.03123 9.13951 7.83864 9.21711 7.63651Z"/></g></svg>

<svg xmlns="http://www.w3.org/2000/svg" fill="none" viewBox="0 0 16 12"><mask id="052_svg__a" width="16" height="12" x="0" y="0" maskUnits="userSpaceOnUse"><path fill="#fff" d="M0 0h16v12H0z"/></mask><g fill-rule="evenodd" clip-rule="evenodd" mask="url(#052_svg__a)"><path fill="#2E42A5" d="M11 0h5v12h-5V0z"/><path fill="#FECA00" d="M5 0h6v12H5V0z"/><path fill="#2E42A5" d="M0 0h5v12H0V0z"/><path fill="#000" d="M9.217 7.637c.317-.655.681-1.85.681-1.85l.277-.822-1.097.398.26.15s-.453.906-.681 1.348c-.228.442-.25.15-.25.15l.038-3.085.252-.068-.628-1.206-.8 1.223.352.01s-.029 3.253-.078 3.126c-.027-.073-.1.151-.136.064-.222-.545-.526-1.601-.526-1.601l.178-.167-1.195-.245.357.734s.314 1.308.66 1.947c.077.202.453.288.453.288s.183-.186.229 0c.045.186 0 .938 0 .938h.843s-.059-.71 0-.938c.06-.228.244 0 .244 0s.49-.192.567-.394z"/></g></svg>
